X: 20831
T: Johnny's So Long At The Fair
R: jig
M: 6/8
K: Gmajor
~d3 dBc|deg dBG|cAB cAB|cAB cBA|
d/d/dd dBc|deg dBG|EcB AGF|1 G3 G2B:|2 G3 GBd||
~g3 gBd|gba gdB|Aaa aga|bag agf|
gbg ~f3|gfe dBG|EcB AGF|G3 GBd|
~g3 (4gBcd|gba gdB|Aaa eaa|bag agf|
gdd fdd|gfe dBG|E2c AGF|G3 G2B||

